static/img/kroki/c0f74b581b2f4fbdd21ecd315fd571b2.svg

<?xml version="1.0" encoding="us-ascii" standalone="no"?><svg xmlns="http://www.w3.org/2000/svg" xmlns:xlink="http://www.w3.org/1999/xlink" contentStyleType="text/css" height="252px" preserveAspectRatio="none" style="width:617px;height:252px;" version="1.1" viewBox="0 0 617 252" width="617px" zoomAndPan="magnify"><defs/><g><!--class azure_network_firewall--><g id="elem_azure_network_firewall"><rect codeLine="23" fill="#3D176E" height="39.7891" id="azure_network_firewall" rx="2.5" ry="2.5" style="stroke:#000D19;stroke-width:0.5;" width="239" x="194.5" y="106.79"/><ellipse cx="209.5" cy="126.6845" fill="#ADD1B2" rx="11" ry="11" style="stroke:#181818;stroke-width:1.0;"/><path d="M212.4688,132.3252 Q211.8906,132.622 211.25,132.7627 Q210.6094,132.9189 209.9063,132.9189 Q207.4063,132.9189 206.0781,131.2783 Q204.7656,129.622 204.7656,126.497 Q204.7656,123.372 206.0781,121.7158 Q207.4063,120.0595 209.9063,120.0595 Q210.6094,120.0595 211.25,120.2158 Q211.9063,120.372 212.4688,120.6689 L212.4688,123.3877 Q211.8438,122.8095 211.25,122.5439 Q210.6563,122.2627 210.0313,122.2627 Q208.6875,122.2627 208,123.3408 Q207.3125,124.4033 207.3125,126.497 Q207.3125,128.5908 208,129.6689 Q208.6875,130.7314 210.0313,130.7314 Q210.6563,130.7314 211.25,130.4658 Q211.8438,130.1845 212.4688,129.6064 L212.4688,132.3252 Z " fill="#000000"/><text fill="#D9B8FF" font-family="Helvetica" font-size="17" lengthAdjust="spacing" textLength="197" x="228.5" y="132.5698">azure_network_firewall</text></g><!--class azure_network_firewall_policy--><g id="elem_azure_network_firewall_policy"><rect codeLine="26" fill="#3D176E" height="39.7891" id="azure_network_firewall_policy" rx="2.5" ry="2.5" style="stroke:#000D19;stroke-width:0.5;" width="296" x="7" y="206.58"/><ellipse cx="22" cy="226.4745" fill="#ADD1B2" rx="11" ry="11" style="stroke:#181818;stroke-width:1.0;"/><path d="M24.9688,232.1152 Q24.3906,232.412 23.75,232.5527 Q23.1094,232.7089 22.4063,232.7089 Q19.9063,232.7089 18.5781,231.0683 Q17.2656,229.412 17.2656,226.287 Q17.2656,223.162 18.5781,221.5058 Q19.9063,219.8495 22.4063,219.8495 Q23.1094,219.8495 23.75,220.0058 Q24.4063,220.162 24.9688,220.4589 L24.9688,223.1777 Q24.3438,222.5995 23.75,222.3339 Q23.1563,222.0527 22.5313,222.0527 Q21.1875,222.0527 20.5,223.1308 Q19.8125,224.1933 19.8125,226.287 Q19.8125,228.3808 20.5,229.4589 Q21.1875,230.5214 22.5313,230.5214 Q23.1563,230.5214 23.75,230.2558 Q24.3438,229.9745 24.9688,229.3964 L24.9688,232.1152 Z " fill="#000000"/><text fill="#D9B8FF" font-family="Helvetica" font-size="17" lengthAdjust="spacing" textLength="254" x="41" y="232.3598">azure_network_firewall_policy</text></g><!--class azure_network_subnet--><g id="elem_azure_network_subnet"><rect codeLine="29" fill="#3D176E" height="39.7891" id="azure_network_subnet" rx="2.5" ry="2.5" style="stroke:#000D19;stroke-width:0.5;" width="233" x="197.5" y="7"/><ellipse cx="212.5" cy="26.8945" fill="#ADD1B2" rx="11" ry="11" style="stroke:#181818;stroke-width:1.0;"/><path d="M215.4688,32.5352 Q214.8906,32.832 214.25,32.9727 Q213.6094,33.1289 212.9063,33.1289 Q210.4063,33.1289 209.0781,31.4883 Q207.7656,29.832 207.7656,26.707 Q207.7656,23.582 209.0781,21.9258 Q210.4063,20.2695 212.9063,20.2695 Q213.6094,20.2695 214.25,20.4258 Q214.9063,20.582 215.4688,20.8789 L215.4688,23.5977 Q214.8438,23.0195 214.25,22.7539 Q213.6563,22.4727 213.0313,22.4727 Q211.6875,22.4727 211,23.5508 Q210.3125,24.6133 210.3125,26.707 Q210.3125,28.8008 211,29.8789 Q211.6875,30.9414 213.0313,30.9414 Q213.6563,30.9414 214.25,30.6758 Q214.8438,30.3945 215.4688,29.8164 L215.4688,32.5352 Z " fill="#000000"/><text fill="#D9B8FF" font-family="Helvetica" font-size="17" lengthAdjust="spacing" textLength="191" x="231.5" y="32.7798">azure_network_subnet</text></g><!--class azure_network_virtual_hub--><g id="elem_azure_network_virtual_hub"><rect codeLine="32" fill="#3D176E" height="39.7891" id="azure_network_virtual_hub" rx="2.5" ry="2.5" style="stroke:#000D19;stroke-width:0.5;" width="272" x="338" y="206.58"/><ellipse cx="353" cy="226.4745" fill="#ADD1B2" rx="11" ry="11" style="stroke:#181818;stroke-width:1.0;"/><path d="M355.9688,232.1152 Q355.3906,232.412 354.75,232.5527 Q354.1094,232.7089 353.4063,232.7089 Q350.9063,232.7089 349.5781,231.0683 Q348.2656,229.412 348.2656,226.287 Q348.2656,223.162 349.5781,221.5058 Q350.9063,219.8495 353.4063,219.8495 Q354.1094,219.8495 354.75,220.0058 Q355.4063,220.162 355.9688,220.4589 L355.9688,223.1777 Q355.3438,222.5995 354.75,222.3339 Q354.1563,222.0527 353.5313,222.0527 Q352.1875,222.0527 351.5,223.1308 Q350.8125,224.1933 350.8125,226.287 Q350.8125,228.3808 351.5,229.4589 Q352.1875,230.5214 353.5313,230.5214 Q354.1563,230.5214 354.75,230.2558 Q355.3438,229.9745 355.9688,229.3964 L355.9688,232.1152 Z " fill="#000000"/><text fill="#D9B8FF" font-family="Helvetica" font-size="17" lengthAdjust="spacing" textLength="230" x="372" y="232.3598">azure_network_virtual_hub</text></g><!--link azure_network_firewall to azure_network_firewall_policy--><g id="link_azure_network_firewall_azure_network_firewall_policy"><path codeLine="35" d="M282.59,147.01 C254.71,164.15 219.3098,185.9152 191.4598,203.0552 " fill="none" id="azure_network_firewall-to-azure_network_firewall_policy" style="stroke:#1A83AF;stroke-width:2.0;"/><polygon fill="#1A83AF" points="186.35,206.2,196.1113,204.8894,190.6082,203.5793,191.9182,198.0763,186.35,206.2" style="stroke:#1A83AF;stroke-width:2.0;"/></g><!--link azure_network_firewall to azure_network_virtual_hub--><g id="link_azure_network_firewall_azure_network_virtual_hub"><path codeLine="36" d="M345.61,147.01 C373.66,164.15 409.3012,185.9299 437.3312,203.0699 " fill="none" id="azure_network_firewall-to-azure_network_virtual_hub" style="stroke:#1A83AF;stroke-width:2.0;"/><polygon fill="#1A83AF" points="442.45,206.2,436.8585,198.0923,438.1843,203.5916,432.685,204.9174,442.45,206.2" style="stroke:#1A83AF;stroke-width:2.0;"/></g><!--link azure_network_subnet to azure_network_firewall--><g id="link_azure_network_subnet_azure_network_firewall"><path codeLine="37" d="M314,47.22 C314,64.36 314,83.27 314,100.41 " fill="none" id="azure_network_subnet-to-azure_network_firewall" style="stroke:#1A83AF;stroke-width:2.0;"/><polygon fill="#1A83AF" points="314,106.41,318,97.41,314,101.41,310,97.41,314,106.41" style="stroke:#1A83AF;stroke-width:2.0;"/></g><!--SRC=[dP31IiD048RlUOg5dWk9HTjUX5WeUYbYlOc4INQsMRBP3RERXbPyTrkhiYPDAjwM_J_c_sPooP5XMRaTAx5CaMnW2wah82XPJ6IQXL66s4W849DfErmQxIu2AoYHtQFQefCPj8ddN6Q5HclPbHVTGLPioDIQdyOx0cqF4MhdKGi5riREaKnhXvuCdwSp8TfaU-XemgFf3NOmGnpf2md3a4VpDdAnQd3l7s8jzyWY_sWhux2ZsQduf0OjZuGdsLdqE-zrV0JEfTwmQ-_lwUH46kdN_pe7RfeZBK1PlyOw93HkL-6YinNEPrnCpy8FVN2G7K_7O5yJ9XfTOwX8X2HiG2ds5WJlWqHI6IMpNJzew_JmxC-tabmDAidhz0Jrc8nVHb4ycyJBr_7jiCi_9dWImLdzFxG77m00]--></g></svg>

<svg xmlns="http://www.w3.org/2000/svg" width="617" height="252" viewBox="0 0 617 252"><rect width="239" height="39.789" x="194.5" y="106.79" fill="#3D176E" rx="2.5" ry="2.5" style="stroke:#000d19;stroke-width:.5"/><circle cx="209.5" cy="126.684" r="11" fill="#ADD1B2" style="stroke:#181818;stroke-width:1"/><path d="M212.469 132.325q-.578.297-1.219.438-.64.156-1.344.156-2.5 0-3.828-1.64-1.312-1.657-1.312-4.782t1.312-4.781q1.328-1.656 3.828-1.656.703 0 1.344.156.656.156 1.219.453v2.719q-.625-.579-1.219-.844-.594-.281-1.219-.281-1.344 0-2.031 1.078-.687 1.062-.687 3.156t.687 3.172q.688 1.062 2.031 1.062.625 0 1.219-.265.594-.281 1.219-.86z"/><text x="228.5" y="132.57" fill="#D9B8FF" font-family="Helvetica" font-size="17" textLength="197">azure_network_firewall</text><rect width="296" height="39.789" x="7" y="206.58" fill="#3D176E" rx="2.5" ry="2.5" style="stroke:#000d19;stroke-width:.5"/><circle cx="22" cy="226.475" r="11" fill="#ADD1B2" style="stroke:#181818;stroke-width:1"/><path d="M24.969 232.115q-.578.297-1.219.438-.64.156-1.344.156-2.5 0-3.828-1.64-1.312-1.657-1.312-4.782t1.312-4.781q1.328-1.656 3.828-1.656.703 0 1.344.156.656.156 1.219.453v2.719q-.625-.578-1.219-.844-.594-.281-1.219-.281-1.343 0-2.031 1.078-.687 1.062-.687 3.156t.687 3.172q.688 1.062 2.031 1.062.625 0 1.219-.265.594-.281 1.219-.86z"/><text x="41" y="232.36" fill="#D9B8FF" font-family="Helvetica" font-size="17" textLength="254">azure_network_firewall_policy</text><rect width="233" height="39.789" x="197.5" y="7" fill="#3D176E" rx="2.5" ry="2.5" style="stroke:#000d19;stroke-width:.5"/><circle cx="212.5" cy="26.895" r="11" fill="#ADD1B2" style="stroke:#181818;stroke-width:1"/><path d="M215.469 32.535q-.578.297-1.219.438-.64.156-1.344.156-2.5 0-3.828-1.64-1.312-1.657-1.312-4.782t1.312-4.781q1.328-1.656 3.828-1.656.703 0 1.344.156.656.156 1.219.453v2.719q-.625-.578-1.219-.844-.594-.281-1.219-.281-1.344 0-2.031 1.078-.687 1.062-.687 3.156t.687 3.172q.688 1.062 2.031 1.062.625 0 1.219-.265.594-.281 1.219-.86z"/><text x="231.5" y="32.78" fill="#D9B8FF" font-family="Helvetica" font-size="17" textLength="191">azure_network_subnet</text><rect width="272" height="39.789" x="338" y="206.58" fill="#3D176E" rx="2.5" ry="2.5" style="stroke:#000d19;stroke-width:.5"/><circle cx="353" cy="226.475" r="11" fill="#ADD1B2" style="stroke:#181818;stroke-width:1"/><path d="M355.969 232.115q-.578.297-1.219.438-.64.156-1.344.156-2.5 0-3.828-1.64-1.312-1.657-1.312-4.782t1.312-4.781q1.328-1.656 3.828-1.656.703 0 1.344.156.656.156 1.219.453v2.719q-.625-.578-1.219-.844-.594-.281-1.219-.281-1.344 0-2.031 1.078-.687 1.062-.687 3.156t.687 3.172q.688 1.062 2.031 1.062.625 0 1.219-.265.594-.281 1.219-.86z"/><text x="372" y="232.36" fill="#D9B8FF" font-family="Helvetica" font-size="17" textLength="230">azure_network_virtual_hub</text><path fill="none" d="M282.59 147.01c-27.88 17.14-63.28 38.905-91.13 56.045" style="stroke:#1a83af;stroke-width:2"/><path fill="#1A83AF" d="m186.35 206.2 9.761-1.31-5.503-1.31 1.31-5.504z" style="stroke:#1a83af;stroke-width:2"/><path fill="none" d="M345.61 147.01c28.05 17.14 63.691 38.92 91.721 56.06" style="stroke:#1a83af;stroke-width:2"/><path fill="#1A83AF" d="m442.45 206.2-5.591-8.108 1.325 5.5-5.499 1.325z" style="stroke:#1a83af;stroke-width:2"/><path fill="none" d="M314 47.22v53.19" style="stroke:#1a83af;stroke-width:2"/><path fill="#1A83AF" d="m314 106.41 4-9-4 4-4-4z" style="stroke:#1a83af;stroke-width:2"/></svg>
